!!!COM: Fanny (Mendelssohn) Hensel
!!!CNT: Deutsch
!!!TXO: Deutsch
!!!OTL: "Bergeslust"
!!!LYR: von Eichendorff, Joseph Freiherr
!!!OPR: 
!!!OPS: Op. 10
!!!ONM: No. 5
!!!ENC: Emily Thomas
!!!YOR: Hensel: Ausgewa2hlte Lieder fu2r Singstimme und Klavier
!!!YOR: Breitkopf & Hartel, 1994
!!!ODT: 1847/
!!NB: Vocal melody and text encoded.
**kern	**silbe
=1-	=1
*clefG2	*
*k[f#c#g#]	*
*M6/8	*
*MM[Allegro molto vivace e leggiero]	*
2.r	.
=2	=2
2.r	.
=3	=3
2.r	.
=4	=4
4r	.
8r	.
4r	.
{8e	{O
=5	=5
4ee	Lust,
8cc#	vom
4a	Berg
8f#	zu
=6	=6
4e	schau-
16g#	|
16f#	|
4e	-en
8r	.
=7	=7
4a	weit
8g#	u2-
8a	-ber
8b	Wald
8f#	und
=8	=8
4.cc#}	Strom,}
4r	.
8r	.
=9	=9
{8dd	{hoch
8b	u2-
8a	-ber
8g#	sich
8f#	|
8e	den
=10	=10
4.ee	blau-
4cc#	-en,
8a	den
=11	=11
8dd	kla-
8b	|
8a	-ren
8g#	Him
8f#	|
8e	-mels-
=12	=12
4.ee}	-dom,}
4r	.
{8ee	{hoch
=13	=13
4dd	u2-
8cc#	-ber
4b	sich
8a	den
=14	=14
[2.aa	blau-
=15	=15
2.aa_	|
=16	=16
4aa]	|
8ee	|
4cc#	-en,
8ff#	tief-
=17	=17
4ee	kla-
8b	-ren
4dd	Him-
8cc#	-mels-
=18	=18
4.a}	-dom.}
4r	.
8r	.
=19	=19
2.r	.
=20	=20
2.r	.
=21	=21
4r	.
8r	.
4r	.
{8e	{Vom
=22	=22
4ee	Ber-
8ccn	-ge
4a	Vo2-
8fn	-gel
=23	=23
4e	flie
16gn	|
16fn	|
4e	-gen
8e	und
=24	=24
8ccn	Wol-
8b	|
8cc	-ken
4dd	so
8gn	ge-
=25	=25
4.ee}	schwind,}
4r	.
{8ccn	{Ge-
=26	=26
8ffn	-dan-
8dd	|
8ccn	-ken
8b	u2-
8a	|
8gn	-ber-
=27	=27
4.ggn	-flie-
4ee	-gen
8ccn	die
=28	=28
8ffn	Vo2-
8dd	|
8ccn	-gel
8bb	und
8a	|
8gn	den
=29	=29
4.gn	Wind;
4ccn}	|}
8r	.
=30	=30
2.r	.
=31	=31
4r	.
8r	.
4r	.
{8a	{Ge-
=32	=32
4ee	-dan-
8ccn	-ken
4ccn	u2-
8b	-ber-
=33	=33
4.b	-flie-
4a}	-gen}
8r	.
=34	=34
2.r	.
=35	=35
4r	.
8r	.
4r	.
{8a	{die
=36	=36
4ccn	Vo2-
8ccn	-gel
4b	und
8ccn	den
=37	=37
4.ee}	Wind,}
4r	.
{8ee	{die
=38	=38
4.ee	Vo2-
4.a#	-gel
=39	=39
4.a#	und
4.a#	den
=40	=40
2.ff#	Wind.
=41	=41
4.g#}	|}
4r	.
8r	.
=42	=42
2.r	.
=43	=43
2.r	.
=44	=44
2.r	.
=45	=45
4r	.
8r	.
4r	.
{8e	{Die
=46	=46
4ee	Wol-
8cc#	-ken
4a	ziehn
8f#	her-
=47	=47
4e	-nie
16g#	|
16f#	|
4e	-der,
8e	das
=48	=48
8a	Vo2g-
8g#	|
8a	-lein
4b	senkt
8f#	sich
=49	=49
4.cc#}	gleich,}
4r	.
{8cc#	{Ge-
=50	=50
8dd	dan-
8b	|
8a	-ken
8g#	gehn
8f#	|
8e	und
=51	=51
4.ee	Lie-
4cc#	-der
8a	bis
=52	=52
8dd	in
8b	|
8a	das
8g#	Him-
8f#	|
8e	-mel-
=53	=53
4.ee}	-reich,}
4r	.
{8ee	{Ge-
=54	=54
4dd	-dan-
8cc#	-ken
4b}	gehn,}
{8a	{Ge-
=55	=55
[2.aa	-dan-
=56	=56
2.aa_	|
=57	=57
4aa]	|
8ee	|
4cc#	-ken
8ff#	bis
=58	=58
4ee	in
8b	das
4dd	Him-
8cc#	-mel-
=59	=59
4.a}	-reich.}
4r	.
8r	.
=60	=60
4r	.
8r	.
4r	.
{8e	{Ge-
=61	=61
4cc#	-dan-
8b	-ken
4a	gehn
8b	und
=62	=62
4.a	Lie-
4.g#	-der
=63	=63
4.a	fort
4a	bis
8a	ins
=64	=64
4.cc#	Him-
4.ee	-mel-
=65	=65
[2.aa	-reich,
=66	=66
4.aa]}	|}
4r	.
8r	.
=67	=67
{4.ee	{fort
4g#	bis
8a	ins
=68	=68
[4.dd	Him-
4dd]	|
8cc#	-mel-
=69	=69
4.a}	-reich.}
4r	.
8r	.
==	==
*-	*-
